X:1
T:Buxtehude - Trio Sonata No.1 in F. {Professional production full score.}
%%score [ 1 2 3 ] { ( 4 6 8 ) | ( 5 7 ) }
L:1/8
Q:1/4=45
M:4/4
K:C
V:1 treble nm="Violino."
V:2 alto nm="Viola da gamba."
V:3 bass nm="Cembalo."
V:4 treble nm="Harpsichord"
V:6 treble 
V:8 treble 
V:5 bass 
V:7 bass 
V:1
"^Adagio.""^S o n a t a  III."!mp! z2 c4 BA | A2 AB P^GA/B/ TA>G | A2 MA2 A4 | z8 | z2 A2 c2 e2- | %5
 e2 d3 cBA | A>B ^G2 A2 z c | BBee ^cdef | eAag fe d2- | decc BcBA | AG G3 G^FE | ^D2 EB ABAG | %12
 GA ^FE F3 F | E2 e2 c2 A2 | f3 f edcB | AcBA ^GABc | BE e2 f2 a2- | a2 g3 fed | d>e M^c2 d2 z f | %19
 M^G2 A4 G^F | ^GB MA>G !fermata!A4 ||!f!"^Allegro." z[Q:1/4=110] aaa/^g/ a/A/a/g/ a/A/a/g/ | %22
 a/A/c/d/ e/f/d/e/ c/d/c/B/ c/d/e/f/ | g/f/e/f/ g/a/g/e/ f/e/d/e/ f/g/f/d/ | %24
 e/c'/e/c'/ d/b/c/a/ B/g/A/^f/ G/e/^F/^d/ | e/E/ z z g/^f/ gg/b/ gg/f/ | %26
 gb/a/ gc' b/c'/b/a/ b3/2a/4g/4 | ^fg/a/ b/c'/b/g/ ef/g/ a/b/a/f/ | %28
 d/e/c/d/ B/c/A/B/ c/e/f/d/ e/f/d/e/ | c/f/e/d/ e/g/c/d/ e/A/e/G/ A/a/d/f/ | ec z2 z4 | %31
 z/ d/e/f/ g/a/g/e/ cd/e/ f/g/f/d/ | B/G/B/c/ d/e/c/d/ B z z2 | z eee/^d/ e/E/e/d/ e/E/e/d/ | %34
 e/E/G/A/ B/c/A/B/ G/A/G/^F/ G/A/B/c/ | d/c/B/c/ d/e/d/B/ c/B/A/B/ c/d/c/A/ | %36
 B/g/A/f/ G/e/F/d/ E/c/D/B/ C/A/B,/^G/ | A/A,/ z z c/B/ cc/e/ cc/B/ | %38
 ce/d/ cf e/f/e/d/ e3/2d/4c/4 | Bc/d/ e/f/e/c/ AB/c/ d/e/d/B/ | %40
 G/A/G/A/ ^F/G/E/F/ G/B/c/A/ B/c/A/B/ | G/b/g/a/ b/a/g/b/ e2 z2 | z/ g/e/f/ g/f/e/g/ c2 z2 | %43
 z/ e/c/d/ e/d/c/e/ A2 z2 | z/ c'/a/_b/ c'/b/a/c'/ fg/a/ Me>d | c2 z e/d/ ee/g/ ee/d/ | ec z2 z4 | %47
 z ggg/^f/ g/G/g/f/ g/G/g/f/ | g/G/B/c/ d/e/c/d/ B/d/B/c/ d/c/B/d/ | %49
 G/B/G/A/ B/A/G/B/ E/g/e/f/ g/f/e/g/ | c/e/c/d/ e/d/c/e/ A2 z2 | z aaa/^g/ a/A/a/g/ a/A/a/g/ | %52
 a/A/c/d/ e/f/d/e/ c/d/c/B/ c/d/e/f/ | g/f/e/f/ g/a/g/e/ f/e/d/e/ f/g/f/d/ | %54
 e/c'/e/c'/ d/b/c/a/ B/g/A/^f/ G/e/^F/^d/ | e/E/ z z G/^F/ GG/B/ GG/F/ | %56
 GB/A/ Gc B/d/B/c/ d/c/B/d/ | G/g/e/f/ g/f/e/g/ c/e/c/d/ e/d/c/e/ | %58
 A/c'/a/_b/ c'/b/a/c'/ f/g/f/e/ d/e/d/c/ | B/c/d/e/ c/e/d/c/ Mc3 B/A/ | A2 z c/B/ cc/e/ cc/B/ | %61
 ce/d/ cf ec/B/ Ad | c^G AB[Q:1/4=100] cB/A/[Q:1/4=90] A>G | !breath!!fermata!A8[Q:1/4=40] || %64
[Q:1/4=40]!mp!"^Lento." z AcA d2 Pef | c3 d (_BA) (Bc) | A6 PA2 | (dc_BA) (GE)[Q:1/4=35] z c | %68
 TG3 A/_B/ A2 z a | g2 z2 z edc | dBef dc d2- | decB c4 | cedc BG c2- | c2 MB2 c4 | z AcA d2 Pef | %75
 c3 d (_BA) (Bc) | A6 d2- | d2 c4 _B2- | B2 A4 G2- | G2 Ff (Med) c2- | cBcd edTc>[Q:1/4=80]B || %81
[M:3/4][Q:1/4=160]!f!"^Vivace." cdcB A2 | c2 MB3 A | ^G2 E2 z2 | z aec Aa | gfgaga | fefgfg | %87
 efefef | dcdede | cdcdcd | BABcBc | Aaefga | g2 z2 c'2- | c'3 c' Pb2- | b3 b Pa2- | a3 a Pg2- | %96
 g3 g P^f2- | f3 ^f e2- | e3 e M^d2 | e4 z2 | cdefec | g4 z2 | efgage | a4 z2 | z gdB Gg | fefgfg | %106
 edefef | dedede | cBcdcd | BcBcBc | AGABAB | GgdBGg | f3 d f2 | eaec Aa | g3 e g2- | gafagf | %116
 e2 z2 a2- | a3 a g2- | g3 g f2- | f3 f e2- | e3 e d2- | d3 d c2- | c3 c MB2 | c4 z2 | ABcdcA | %125
 d4 z2 | BcdedB | e4 z2 | cdefec | g2 ^f3 e | ^d2 B2 z2 | z eBGEe | dcdede | cBcdcd | BcBcBc | %135
 AGABAB | GAGAGA | ^FEFGFG | EeBcde | c2 z2 f2- | f3 f e2- | e3 e d2- | d3 d c2- | c3 c B2- | %144
 B3 B A2- | A3 A M^G2 | A3 B Pc2 | B2 MB3 A | AaecAa | g2 z2 z2 | z gdBGg | e2 z2 z2 | z eBGEe | %153
 c2 z2 z2 | z cGECc | BbgdBb | egag M^f2 | gGBcde | cBAcBA | B3 G B2 | c2 z2 d2 | GcGECc | %162
 _BABcBc | A3 F A2 | G4 z2 | z gdBGg | fefgfg | e3 c e2 | f2 z2 g2 | c3 cde | fgfedc | BeB^GEe | %172
 dcdede | c3 A c2 | B2 E2 e2- | e2 d2 a2 | g2 c2 g2 | f2 B2 f2 | e2 A2 e2 | d2 ^G2 Md2 | caecAa | %181
 gfgaga | fefgfg | efefef | dcdede | c2 cBcd |[Q:1/4=100] e3 A[Q:1/4=80] MB2 | %187
 !breath!!fermata!^G6 ||[M:4/4]"^Largo."[Q:1/4=40] z8 | z4 z2!mp! ee | (^dd=dd) (^cc=cc) | %191
 (BBB^c) (^AABB) | (^AA=AA) (^GG=GG) | ^FFBB EEAA | (^DDEE) (EE^FF) | (GG^GG) (_AA=AA) | %196
 AA[Q:1/4=35]BB[Q:1/4=30] cd/e/ Td>c | !fermata!B8 ||"^Presto."[Q:1/4=110]!f! z4 z G c/d/B/c/ | %199
 AGAc BcdB | egfe dc f/g/e/f/ | dcdf Me>f ge | a_bag fed>c | B2 z c B2 z c | B2 z e fede | %205
 fede fdMc>B | A/a/g/f/ e/a/g/a/ fgaf | d/g/f/e/ d/g/f/g/ ef ge | c/a/g/a/ f/g/e/f/ d/D/E/F/ GF | %209
 E/g/f/g/ e/f/d/e/ c/c'/b/c'/ a/b/g/a/ | ^f z z2 z d g/a/f/g/ | edeg ^fgaf | b z z2 z G c/d/B/c/ | %213
 A/d/c/B/ A/d/c/d/ BcdB | e/g/f/g/ e/f/d/e/ c/d/B/c/ A/B/c | ^F2 z G F2 z G | ^F2 z B cBAB | %217
 cBAB cA MG>^F | E/e/d/c/ B/e/d/e/ cdec | A/d/c/B/ A/d/c/d/ Bc dB | G/e/d/e/ c/d/B/c/ A/A/B/c/ dc | %221
 Bd g/a/f/g/ e/f/d/e/ c/d/B/c/ | A/B/G/A/ B/c/A/B/ G/g/=f/e/ d/g/f/g/ | e z z2 z c f/g/e/f/ | %224
 d2 z e d2 z e | d2 z e dcBc | dcBc cc Mc>B | c/c'/_b/a/ g/c'/b/c'/ ab c'b | %228
 a/c'/_b/c'/ a/b/g/a/ f/g/e/f/ d/e/f | B2 z c B2 z c | B2 z e fede | fede fdMc>B | %232
 A/a/g/f/ e/g/f/e/ f/d/c/B/ A/c/B/A/ | ^G z z2 A z z2 | B z z2 c z z e | ^GE e/e/c/c/ BG e/e/c/c/ | %236
 B^G A/A/c/c/ B/B/d/d/ c/c/e/e/ | ^G/G/B/B/ E/E/e/e/ cd ec | Bc BA dc ed | %239
[Q:1/4=100] c/d/B/c/[Q:1/4=90] d/e/c/d/ BB[Q:1/4=80] MB>A || %240
[Q:1/4=40]"^Lento." A2 z a"_dim." ^g2 =g2 | ^f2 =f2 e2 _e2- | e2 =d4 c2- | c2 _B4 A2 | %244
 P^G2 A2-[Q:1/4=30] A2 M^G2 |!mp! !fermata!A8 |] %246
V:2
!mp! z2 E4 DC | C2 CD PB,C/D/ TC>B, | C2 MC2 C4 | z2 E2 C2 A,2 | F3 F EDCB, | A,CB,A, ^G,A,B,C | %6
 B,E, EE, F,2 A,2- | A,2 G,3 F,E,D, | D,>E, M^C,2 D,2 z F, | E,E,A,A, ^G,A,B,C | B,E, ED CB, A,2- | %11
 A,B, G,G ^FGFE | E^F ^D^C D3 D | E4 z4 | z2 A,2 C2 E2- | E2 D3 CB,A, | A,>B, M^G,2 A,2 z C | %17
 B,B,EE ^CDEF | EA, AG FE D2- | DECC C2 B,A, | B,D ^C>B, !breath!!fermata!A,4 ||!f! z8 | z8 | z8 | %24
 z8 |!f! z EEE/^D/ E/E,/E/D/ E/E,/E/D/ | E/E,/G,/A,/ B,/C/A,/B,/ G,/A,/G,/^F,/ G,/A,/B,/C/ | %27
 D/C/B,/C/ D/E/D/B,/ C/B,/A,/B,/ C/D/C/A,/ | %28
 B,/G/A,/F/ G,/E/F,/D/[K:bass] E,/C/D,/B,/ C,/A,/B,,/^G,/ | %29
 A,/A,,/ z[K:alto] z C/B,/ CC/E/ CC/B,/ | CE/D/ CF E/F/E/D/ E3/2D/4C/4 | %31
 B,C/D/ E/F/E/C/ A,B,/C/ D/E/D/B,/ | G,/B,/G,/A,/ ^F,/G,/E,/F,/ G,/B,/C/A,/ B,/C/A,/B,/ | %33
 G,E, z G/^F/ GG/B/ GG/F/ | GB/A/ Gc B/c/B/A/ BA/G/ | ^FG/A/ B/c/B/G/ EF/G/ A/B/A/F/ | %36
 D/E/C/D/ B,/C/A,/B,/ C/[K:bass] E,/F,/D,/ E,/C,/D,/E,/ | %37
 A,,A, A,A,/^G,/ A,/A,,/A,/G,/ A,/A,,/A,/G,/ | %38
 A,/A,,/C,/D,/ E,/F,/D,/E,/ C,/D,/C,/B,,/ C,/D,/E,/F,/ | %39
 G,/F,/E,/F,/ G,/A,/G,/E,/ F,/E,/D,/E,/ F,/G,/F,/D,/ | %40
 E,/C/E,/C/ D,/B,/C,/A,/ B,,/G,/A,,/^F,/ G,,/E,/^F,,/^D,/ | %41
 E,/E,,/ z z2 z/ G,/E,/F,/ G,/F,/E,/G,/ | C,2 z2 z/ E,/C,/D,/ E,/D,/C,/E,/ | %43
 A,,2 z2 z/ C,/A,,/_B,,/ C,/B,,/A,,/C,/ | F,,/A,/F,/G,/ A,/G,/F,/A,/ D,E,/F,/ G,G,, | %45
 C,CCC/B,/ C/C,/C/B,/ C/C,/C/B,/ | C/C,/E,/F,/ G,/A,/F,/G,/ E,/F,/E,/D,/ E,/C,/B,,/A,,/ | %47
 G,,2 z B,/A,/ B,B,/D/ B,B,/A,/ | B,G, ^F,D, G,G,,/A,,/ B,,/A,,/G,,/B,,/ | %49
 E,,2 z2 z/ E,/C,/D,/ E,/D,/C,/E,/ | A,,2 z2[K:alto] z/ C/A,/_B,/ C/B,/A,/C/ | %51
 F,F,/G,/ A,C/B,/ CC/E/ CC/B,/ | CE/D/ CF E/F/E/D/ E3/2D/4C/4 | B,C/D/ E/F/E/C/ A,B,/C/ D/E/D/B,/ | %54
 G,G/A/ B/G/E/^F/ G/[K:bass]B,/C/A,/ B,B,, | z E,E,E,/^D,/ E,/E,,/E,/D,/ E,/E,,/E,/D,/ | %56
 E,/E,,/G,,/A,,/ B,,/C,/A,,/B,,/ G,,2 z2 | z/ E,/C,/D,/ E,/D,/C,/E,/ A,,2 z2 | %58
 z/ A,/F,/G,/ A,/G,/F,/A,/ D,/E,/D,/C,/ B,,/C,/B,,/A,,/ | ^G,,>G,, A,,/C,/F,,/A,,/ E,,D,, E,,2 | %60
 A,,A, A,A,/^G,/ A,/A,,/A,/G,/ A,/A,,/A,/G,/ | %61
 A,/A,,/C,/D,/ E,/F,/D,/E,/ C,/D,/E,/C,/ F,/E,/F,/D,/ | E,[K:alto]E/D/ CF ED/C/ B,>B, | %63
{!fermata!x} .!fermata!A,8 ||!mp! z4 z AGF | GEA_B (GF) G2- | GGMFE F4 | FAGF EC F2- | F2 PE2 F4 | %69
 z E GE A2 PBc | G3 A FEFG | E6 ME2 | (AG)(FE) DB, z G | TD3 E/F/ EE,G,E, | A,4 z AGF | %75
 GEA_B GF G2- | GGMFE F3 F | E2 _E2 D3 D | ^C2 =C2 B,2 _B,2 | A,2 D2 ^G,2 A,2- | %80
 A,^G,A,B, CB,TA,>^G, ||[M:3/4]!f! A,2 z2 z2 |[K:bass] A,2 D,3 F, | E,3 D,C,B,, | A,,4 z2 | %85
[K:alto] z6 | z6 | z6 | z6 | z6 | z6 | z6 | z EB,G,E,E | DCDEDE | CB,CDCD | B,CB,CB,C | %96
 A,G,A,B,A,B, | G,A,G,A,G,A, | ^F,E,F,G,F,G, | E,^F,G,A,G,E, | A,4 z2 | G,A,B,CB,G, | C4 z2 | %103
 A,B,CDCA, | B,2 z2 E2- | E3 E D2- | D3 D C2- | C3 C B,2- | B,3 B, A,2- | A,3 A, G,2- | %110
 G,3 G, ^F,2 | G,4 z2 | z DA,F,D,D | C3 A, C2 | B,EB,G,E,E- | EF D4 |[K:bass] z CG,E,C,C | %117
 _B,A,B,CB,C | A,G,A,_B,A,B, | G,A,G,A,G,A, | F,E,F,G,F,G, | E,F,E,F,E,F, | D,C,D,E,D,E, | %123
 C,D,E,F,E,C, | F,4 z2 | D,E,F,G,F,D, | G,4 z2 | E,F,G,A,G,E, | A,4 z2 |[K:alto] E2 A,3 C | %130
 B,3 A,G,^F, | E,2 z2 c2- | c3 c B2- | B3 B A2- | A3 A G2- | G3 G ^F2- | F3 ^F E2- | E3 E M^D2 | %138
 E4 z2 |[K:bass] z A,E,C,A,,A, | G,F,G,A,G,A, | F,E,F,G,F,G, | E,F,E,F,E,F, | D,C,D,E,D,E, | %144
 C,D,C,D,C,D, | B,,A,,B,,C,B,,C, | A,,B,,C,D,E,A,, | D,F,E,D, E,E,, | A,,4 z2 | z EB,G,E,E | %150
 D2 z2 z2 | z CG,E,C,C | B,2 z2 z2 | z A,E,C,A,,A, | G,2 z2 z2 | z G,D,B,,G,,G, | %156
 C,2[K:alto] EDCD | B,2 G,A,B,C | A,G, MG,3 ^F, | G,GDB,G,G | FEFGFG | E3 C E2 | F2 z2 G2 | %163
 CFCA,F,F | EDEFEF | D3 D B,2 | C2 z2 D2 | G,[K:bass] CG,E,C,C | _B,A,B,CB,C | A,_B,A,G,F,E, | %170
 D,E,D,C,B,,A,, | E,6 | z6 |[K:alto] z AECA,A | GFGAGA | FEFGFG | EFEFEF | DCDEDE | CDCDCD | %179
 B,A,B,CB,C | A,2 z2 F2- | F3 F E2- | E3 E D2- | D3 D C2- | C3 C B,2- | B,2 A,^G,A,B, | C2 MD3 D | %187
 !fermata!E6 ||[M:4/4] z4 z2!mp! BB | _BBAA ^GG=GG | !^!^F8- | F(^FEE) (EE^DD) | (EE^FF) (B,B,EE) | %193
 (^DD=DD) (^CC=CC) | (B,B,B,B,) (CC^CC) | (DDDD) (_EE=EE) | (^FFPGG) AB/c/ MA2 | !fermata!G8 || %198
!f! z D G/A/F/G/ EDEG | ^FGMG>F G2 z2 | z G, C/D/_B,/C/ A,G,A,C | B,CTC>B, CC/D/ MC>_B, | %202
 A, z z C DC=B,>A, | ^G,2 z A, G,2 z A, | ^G,2 z C B,G,A,C | B,^G,A,A, A,A,MA,>G, | %206
 A, z z2 z/ D/C/_B,/ A,/D/C/D/ | B,CDB, G,/C/_B,/A,/ G,/C/B,/C/ | A,2 B,C B,2 B,/G,/A,/B,/ | %209
 C z z2 z/ E/D/E/ C/D/B,/C/ | A,A, D/E/C/D/ B,A,B,D | ^CDMD>C D2 z2 | z D G/A/F/G/ EDEG | %213
 ^FGAF z/ G/F/E/ D/G/F/G/ | E z z G AG ^F>E | ^D2 z E D2 z E | ^D2 z G ^FDEG | ^F^DEE EEME>D | %218
 E2 z2 z/ A/G/F/ E/A/G/A/ | ^FG AF D/G/=F/E/ D/G/F/G/ | E2 ^FG F2- F/D/E/F/ | %221
 G/[K:bass]G,/F,/G,/ E,/F,/D,/E,/ C,/D,/B,,/C,/ A,,/B,,/G,, | D,E, C,D, G,, z z2 | %223
[K:alto] z G, C/D/_B,/C/ A,G, A,C | B,2 z C B,2 z C | B,2 z G AGFG | AGFG AF E>D | %227
 EF GE C/F/E/D/ C/D/E/E/ | F2 z C DC B,>A, | ^G,2 z A, G,2 z A, | ^G,2 z C B,G, A,C | %231
 B,^G,A,A, A,A,MA,>G, |[K:bass] A,/A,,/B,, C,A,, D,E, F,D, | %233
 E,/E/D/C/ B,/D/C/B,/ C/D/C/B,/ A,/C/B,/A,/ | ^G,/A,/B,/C/ B,/D/C/B,/ A,/A,/=G,/F,/ E,/D,/C,/A,,/ | %235
 E,2 z A,, E,2 z A,, | E,E CA, ^G,E, A,C, | E,D, C,^G,, A,,/A,/=G,/F,/ E,/A,/G,/A,/ | %238
 F,/G,/E,/F,/ D,/E,/C,/D,/ B,,/C,/A,,/B,,/ G,,/A,,/F,,/G,,/ | E,,[K:alto] ^G AA AA MA>^G || %240
 A2 z2 z4 | z8 | z2"_dim." A2 ^G2 P=G2 | ^F2 P=F2 E4 | D2 C2 B,4 |!mp! !fermata!^C8 |] %246
V:3
!mp! A,,8- |"_7\n4\n2" A,,8- |"^8\n5\n3" A,,8 |"^6" ^G,,4 A,,4 | z2 D,2 A,4 | %5
"^7      6" F,4"^7  6   5   4\n#   4   #   2(#)" E,4- |"^4        #" E,4 z2"^6" C,D, | %7
"^4" E,2"^3" z2"^7  6   5   4\n#   4   #   2" A,,4- |"^4         #" A,,4 z2"^6  5" B,,2 | %9
"^9      8\n       6" C,3 D,"^5  6   5   4\n#   4       2#" E,4 | %10
"^4" E,2"^3" E,,2"^7" A,,2"^6#" C,2 | %11
"^7#      6      5   6  (5)   6\n        4      (7)  4  (7)   4" B,,8- | %12
"^6      5\n4      #" B,,6 A,,2 | ^G,,4 A,,4 |[K:alto] z2"^6" A,2"^6" C2"^6 5" E2- | %15
"^6\n4" E2"^6  5" D2-"^4#\n2" D"^(6)"C"^6#"B,A,- |"^2" A,2"^8" ^G,2"^6" A,3"^6" C | %17
"^7" B,2 E2"^6\n5" ^C3 D |[K:bass]"^4" A,2"^#" A,,2 z2 D,2 | %19
"^#6" B,,2 A,,2"^6   5   4\n4   3   2#\n     #" E,4 |"^5\n#" E,4"^#" !fermata!A,,4 ||!f! z8 | %22
 z A,/B,/"^6" C"^6#"B, A,A,, A,G,/F,/ |"^6" E,C,"^6" E,2"^7" D,2-"^6" D,G, | %24
 C,2 G,,A,, E,"^6#"A,"^6\n4" B,"^5#\n#"B,, | E, z E,, z E, z E,, z | %26
 E,"^6"G,"^6"B,"^6#"A,"^6" G,>^F, G,>A, | B, z z G, A, z z ^F, | %28
 G,"^6"A,"^6"G,"^6"F,"^6" E,"^6"D,"^6"C,"^6#"B,, | A,,B,,C,A,, z"^6" E,,"^5"F,,G,, | %30
 C,,C,/B,,/ A,,D, C,C/B,/ C^F, | G, z"^6" E, z F, z"^6" D, z | E, z"^6" ^F, z G,A, G,F, | %33
 E, z C, z"^6" G,, z"^4    #" B,, z | E,, z z A,, E,E,,- E,,/^F,,/"^6"G,,/A,,/ | %35
 B,, z G,, z A,, z"^5" ^F,, z | G,, z z2 z4 | A,, z A, z A,, z A, z | %38
 A,,"^6"C,"^6" E,"^6"D, C,>B,, C,>D, | E, z z C, D, z z"^5" B,, | %40
 C,"^6"E,"^6\n#" D,"^6"C,"^6" B,,"^6#"A,,"^6" G,,"^6#"^F,, | E,,2 z2 z E,E,C, | C2 z2 z C,C,A,, | %43
 A,2 z2 z"^(6)" A,,A,,F,, | F,>G, A,F, D,"^6"E,/F,/"^6\n4" G,"^5\n3"G,, | %45
 C, z A,, z"^6" E,, z"^6    5\n4    3" G,, z | C,,C,/D,/"^6" E,"^6#"D, C,C,, C,B,,/A,,/ | %47
 G,, z G, z G,, z G, z | G,,G,"^6" ^F,D, G,G,,"^6" B,,G,, | E,,E, G,E, C,C, E,C, | %50
 A,,A, CA, F,F, A,F, | D, z F, z"^(6)" C, z"^4" E,"^#" z | A,, z z D, A,A,,3/2 B,,/C,/D,/ | %53
 E,2 z C, D,2 z"^5" B,, | C,2 G,,A,, E,"^6#"A,"^6\n4" B,"^5\n#"B,, | E,, z E, z E,, z E, z | %56
 E,,G,,"^6" B,,"^6#"A,, G,,G, B,G, |"^(6)" E,C, E,C, A,,A, CA, | F,F, A,F, D,>C, B,,>A,, | %59
"^6       5" ^G,,2 A,,"^6"F,,"^6\n4" E,,"^7\n5"D,,"^6       #\n4" E,,2 | A,, z A, z A,, z A, z | %61
 A,,C,"^6" E,"^6"D, C,"^6"E, F,"^6\n5"D, | %62
"^6     5\n4     #" E,2-"^6\n4" E,"^8\n6"D,"^6" C,"^65"D,"^4#" PE,2 |"_#" !fermata!A,,8 || %64
!mp! F,,4 z"^6" F,"^6"ME,"^6"D, |"^6" E,"^5"C,"_6\n4" F,2-"^4\n\n2" F,2"^5\n\n3" E,2 | %66
"^9" F,4-"^8" F,E,D,C, |"^5         6   5\n3" _B,,4-"^6\n4" B,,2 z"^6" A,, | %68
"^6\n5" _B,,"^7"G,,C,C,, F,,F, A,F, | C4 z"^6" C"^6"B,"^6#"A, |"^6" B,G, C2-"^2" C2 B,2 | %71
"^9" C4-"^8" C_B,A,G, |"^5       6   5" F,4"^6\n4" F,2 z"^6" E, | %73
"^6\n5" F,"^7"D, G,G,, z C,"^6"E,C, | F,4 z"^6" F,"^6"E,"^6"D, | %75
"^6" E,C, F,2-"^4(\n\n)\n2" F,2 ME,2 |"^9" F,2 MD,2 DC _B,A, | %77
"^6\n5\n" G,2"^5" PA,2"^9" _B,A,"^"G,F, |"^6\n5" E,2"^5" ^F,2"^9" G,2"^7" ^C,2 | %79
"^4     3" D,4-"^9 8\n4#" D,2"^7\n5" ^D,2 |"^6                5\n4                #" E,8 || %81
[M:3/4] z2!f! A,,B,,"^6" C,2 | A,,2"^6  5" D,4 |"^#" E,4 z2 | A,,4[K:alto] A,2 |"^6" E6 | %86
"^7             6" D6- |"^6\n4\n(2)" D4"^6" C2- |"^6\n4\n(2)" C4"^8\n6" B,2- | %89
"^6\n4\n(2)" B,4"^8\n6" A,2- |"^4\n2" A,4"^5\n3" ^G,2 | A,4[K:bass] A,,2 | E,4[K:alto]"^6" E2 | %93
"^7            6" D6 |"^7            6" C6 |"^7            6" B,6 |"^7            6#" A,6 | %97
"^7     6" G,6 |"^7            6#" ^F,6 | E,4 z2 | A,6 | G,6 | C4 z2 |"^6              5" ^F,6 | %104
 G,4 C2 |"^6\n5" A,4"^5\n3" B,2 |"^9" C4 A,2 |"^6\n5" ^F,4 G,2 |"^6\n5" E,4 ^F,2 | %109
"^9" G,4[K:bass] E,2 |"^6\n5" C,4"^#" D,2 | G,,4 z2 | D,4 z2 | A,,4 z2 | E,4 z2 | %115
"^7" A,,2"^5 " B,,4 | C,2 z2"^5 " ^F,,2 |"^9\n" G,,4"^8\n" G,,2 |"^4" D,4"^3" D,2 | %119
"^6\n5" B,,4 C,2 |"^6\n5" A,,4 B,,2 |"^9" C,4"^6" E,,2 |"^6\n5" F,,4 G,,2 | C,,4 C,2 | F,4 z2 | %125
 D,4 z2 | G,4 z2 | E,4 z2 | A,4 z2 | E2"^6#" A,4 |"^#" B,4 z2 | E,4 A,2 |"^6\n5" ^F,4 G,2 | %133
"^6\n5" E,4 ^F,2 |"^9" G,4 D,2 |"^6\n5" ^C,4"^#" D,2 |"^6\n5" B,,4 C,2 |"^6(#)\n5" A,,4"^#" B,,2 | %138
"^#" E,4 E,,2 | A,,2 z2"^(6)" A,2 |"^7              6\n                " G,6 | %141
"^7              6" F,6 |"^7              6" E,6 |"^7              6" D,6 | %144
"^7              6" C,6 |"^7               6#" B,,6 | A,,6 |"^6\n5" D,,2"^#" E,,4 | A,,4 z2 | %149
 E,4 z2 |"^6" B,,4 z2 | C,4 z2 |"^6" G,,4 z2 | A,,4 z2 |"^6" E,,4 z2 | G,,6 | %156
 z2"^(6)" C,B,,"^6#" A,,2 | E,4"^6" B,,2 |"^6" C,2"^4           #" D,4 | G,,6 | %160
"^6" A,,4"^5" B,,2 | C,6 |"^6" D,4 E,2 | F,6 | C4 C,2 |"^6" B,,4 E,2 |"^6" A,,4 B,,2 | C,6 | %168
"^6" D,4 E,2 | F,3 E, D,2- | D,3"^6" C,"^6#"B,,A,, |"^#" E,6 |"^6" ^F,4"^5" ^G,2 | A,6 | %174
[K:alto] E4 z2 |"^7      6" F4 z2 |"^7       6" E4 z2 |"^7      6" D4 z2 |"^7      6" C4 z2 | %179
"^7     6#" B,4 z2 | A,2 z2 D2 |"^6\n5" B,4 ^C2 |"^9" D2"^6\n5" A,2 B,2 |"^9" C2"^6\n5" ^G,2 A,2 | %184
"^9" B,2"^6\n5" ^F,2 ^G,2 |"^9           8" A,6 |[K:bass] A,,2"^6" F,,4 | !fermata!E,,6 || %188
[M:4/4] z2!mp! E,2"^6" ^D,2"^6" =D,2 |"^6" _D,2"^6" =C,2"^6" B,,2"_" E,,2 | %190
"^#" B,,2"_" B,2"^6\n#" ^A,2"^6\n3" =A,2 |"^7" ^G,2"^6" =G,2"^7\n#" ^F,2"^#" B,,2 | %192
"^6" ^C,2"^5" ^D,2"^#" E,2"_" E,2 |"^#" B,2"^" B,2"^4\n2#" B,2"^6#\n" A,2- | %194
"^4#\n2" A,2"^6" P^G,2 A,2"^6\n#" A,,2 |"^6" _B,,2"^6#" =B,,2"^6" C,2"^6\n3" ^C,2 | %196
"^#" PD,2 G,,2-"^4\n2" G,,2"^6    5" P^F,,2 | !fermata!G,,8 ||!f! G,F,E,D, C,B,,A,,G,, | %199
"^#" D,E,"^6\n5"C,"^#"D, G,,A,,"^6"B,,G,, | C,"^6"_B,,"^6"A,,"^6\n"G,,"^6" F,,"^6"E,,"^6#"D,,C,, | %201
 G,,A,,"^6\n5"F,,G,, C,,C,"^6"E,C, | F,"^"G,F,E, D,E,"^6\n4"F,"^6 5"D, | %203
"^#" E,D,"^6"C,A,,"^#" E,D,"^6"C,A,, |"^#" E,E,,E,"^6"C,"^6" D,"^(6)"E,"^6"F,"^6"C, | %205
"^6" D,"^#"E,"^6"F,"^6"C, D,"^7"B,,"^6\n4" E,"^#"E,, | A,,B,,"^6"C,A,, D,E,"^6"F,D, | %207
 G,"^6"A,,"^(6)"B,,G,, C,D,"^6" E,C, | F,E,"^6"D,C, G,F,E,D, | C,D,C,B,, A,,B,,C,A,, | %210
"^#" D,C,B,,A,, G,,^F,,E,,"^#"D,, |"^#" A,,B,,"^6\n5"G,,"^#"A,,"^#" D,E,"^6"^F,D, | %212
 G,=F,E,"^6"D, C,B,,A,,G,, |"^#" D,E,"^6"^F,D, G,A,"^6"B,G, | CDCB, A,B,"^6\n4#"C"^6#5"A, | %215
"^#" B,A,"^6"G,E,"^#" B,A,"^6"G,E, |"^#" B,B,, B,G,"^6#" A,"^#"B,"^6"C"^6"G, | %217
"^6" A,"^#"B,"^6"C"^6"G,"^7" A,^F,"^6\n4" B,"^5\n3"B,, | E,^F, G,E, A,B, CA, | %219
 D"^6"E, ^F,D, G,A, B,G, | CB,"^6#"A,G,"^#" DCB,A, | G,=F, E,D, C,"^6#"B,, A,,=G,, | %222
"^#" D,E,"^7\n5" C,"^#"D, G,,A,, B,,G,, | C,_B,,"^6"A,,"^6\n"G,, F,,E,,D,,C,, | %224
 G,,G,"^6"E,C, G,F,"^6"E,C, | G,G,, G,"^6"E,"^6" F,"^6"E,"^6"D,"^6"E, | %226
"^6" F,"^6"E,"^6"D,"^6"E, F,"^7"D,"^6\n4" G,"^5\n3"G,, | C,D,"^6" E,C, F,"_\n(6)"G, A,"^"G, | %228
 F,"^"G, F,E, D,"^6"E,"^6\n4" F,"^6  5"D, |"^#" E,D,"^6"C,A,,"^#" E,D,"^6"C,A,, | %230
"^#" E,D,"^6"C,A,,"^6" D,"^#"E,"^6" F,"^6"C, | %231
"^6" D,"^#"E,"^6" F,"^6"C, D,"^7"B,,"^6\n4" E,"^5\n#"E,, | %232
 A,,"^(6)"B,, C,A,, D,"^(6)"E, F,"^(6)"D, |"^#" E, z z2"^6\n4" E, z z2 | %234
"^5\n#" E, z z2"^6\n4" E, z z2 | z"^#" E,"^6"C,A,, z"^#" E,"^6"C,A,, | %236
"^#" E,2 z A,"^6" ^G,E,"^6" A,C, |"^#" E,D,"^6" C,"^6"^G,, A,,B,,"^6" C,A,, | %238
"^6" D,"^6"E,"^6" D,"^6"C,"^6" B,,"^6"A,,"^6" G,,"^6"F,, | %239
"^6        5\n#" E,,2"^6  5\n   3" F,,2"^6\n5" D,,2"^4     #" E,,2 || A,,2 z2 z4 | %241
 z2"^6""_dim." A,2"^6" ^G,2"^6" M=G,2 |"^(7)" ^F,2"^6" M=F,2"^7\n#" E,2"^(6)\n(3)" M_E,2 | %243
"^7       6\n\n#        " D,4"^7" ^C,2"^6" =C,2 |"^6#" B,,2 A,,2"^4       #" E,4 | %245
!mp! !fermata!A,,8 |] %246
V:4
"^Adagio."!mp! [CEA]8- | [CEA]4 [B,D^G]4 | [CEA]8 | E8 | z2 [DF]2 [CE-]4 | E2 D2- DCB,[A,^E] | %6
 B,4 x2 A2- | A2 =G2- [EG][DF][^CE][B,D-] | D2 ^C2 z2 GF | E3 F E3 [A,^DA] | A2 G2- G2 A2- | %11
 [^DA]2 [EG]2 [A,D^F][B,EG][A,DF][G,B,E] | [EG]2 [^D^F][^CE] [DF]2 x2 | x8 | z2 c4- cB | %15
 c2 BA ^GA[^GB][Ac] | B4 [CFA]3 [EA-] | [DA]2 [EG-]2 [EGB]3 [FA] | [EA]4 z2 [FA]2 | %19
 [D^G]2 [CA]2 A2 G^F | [E^G]4 !fermata![EA]4 ||!f!"^Allegro." z8 | z [Ec] [EA][^GB] [Ac]4 | %23
 c4- c2 B2 | [Ec]2 dc BA G=F | [EG] z [B,EG] z [B,EG] z [B,EG] z | GEGA B4 | %27
 [D^FB] z z [DGB] [CEc] z z [Ac] | Bfed cBA^G | [CA][DF] [CE]2 z cAB | [Ec]2- [Ec][FA] [Ec]3 c | %31
 [GB] z [CGc] z [CFA] z [B,FB] z | [B,EG] z [DAd] z [DGB]4 | [EGB] z [EGc] z [EB] z [^FB]2 | %34
 [EGB] z z [EAc] [EGB]4 | [D^FB] z [GBd] z [EAc] z [Ac] z | [DGB] z z2 z4 | %37
 [EAc] z [EAc] z [EAc] z [EAc] z | [Ac]e [EGc][FB] [EGc]4 | [EGB] z z [Gce] [FAd] z z [Fd] | %40
 c2 BA G^F [B,E][A,^D] | [G,E]2 z2 z [EGB][EGB][EGc] | [EGc]2 z2 z [EGc][EGc][EAc] | %43
 [EAc]2 z2 z [FAc][FAc][FAc] | [FAc]4 [FAd][EGc]- [EGc][DGB] | [EGc] z [EAc] z [CGc] z cB | %46
 [Gc]2- [Gc][FB] [EGc]2 [EG][EG]/[^FA]/ | [DGB] z [DGB] z [DGB] z [DGB] z | %48
 [DGB]2 [DAd]2 [DGB]2 GB | [EGB]4 [EGc]4 | [EAc]4 [FAc]4 | [FAd] z [FAc] z [EAe] z cB | %52
 [EAc] z z [FAd] [EAc]4 | [EGB]2 z [Gce] [FAd]2 z [Fd] | [Ec]2 dc BAG^F | %55
 [EG] z [B,EG] z [B,EG] z [B,EG] z | [B,EG-]2 G^F [B,G]2 GB | c4 [Ac]4 | [Ac]4 d4 | %59
 ed cd [Ac]2- [Ac][^GB] | [EAc] z [EAc] z [EAc] z [EAc] z | [EAc]2 [Gc][FB] c2- c[AB] | %62
 [Ac][^GB][Ac]B AB/A/ MAG | !fermata![^CEA]8 ||!mp!"^Lento." [FAc]4 z [Ad]M[Gc][FB] | %65
 cG A_B [DGB]2 [G-B]2 | A6 A2 | [F_B]2 d2 [CEG]2 z [CF] | G_B [CEG]2 [CFA]4 | G4 z [EA][GB][^Fc] | %70
 B2 G2 F2 d2- | d2 G2 c4 | c2 dc [DG=B]2 z [EGc] | [DAc]2 [DGB]2 z [Gc][Gc][Gc] | A4 z dcB | %75
 c3 d A4 | A4 A2 [_Bd]2- | [Bd]2 c4 _B2- | [GB]2 A4 G2- | G2 F2 [=B,E]2 C2 | C4 B,4 || %81
[M:3/4]!f!"^Vivace." C2 [EAc]2 [EAc]2 | [EAc]2 B2 A2 | [B,E^G]4 z2 | A4 [EAc]2 | [Gc-]6 | c4 B2- | %87
 [EGB]4 [EA-]2 | [DFA]4 [DG-]2 | [CEG]4 [CF]2 | D6 | C4 [EAc]2 | [EGB]4 [Gc-]2 | c2 A2 B2- | %94
 B2 ^G2 A2- | A2 ^F2 G2- | G2 E2 ^F2- | F2 ^D2 E2- | E2 ^C2 ^D2 | E4 z2 | [Ac]6 | [Bd]6 | %102
 [ce]4 z2 | d4 c2 | B4 [Gc-e-]2 | [Fce]4 [FBd-]2 | [EGd]4 [EA-c-]2 | [DAc]4 [DG-B-]2 | %108
 [CGB]4 [C^FA-]2 | [B,DA]4 [B,E-G-]2 | [EG]4 [D^F]2 | [B,DG]4 z2 | [DFA]4 z2 | [EAc]4 z2 | %114
 [EGB]4 z2 | [EGc]2 [DFd]4 | [EGc]2 z2 [CA-c]2 | [DA_B]4 [DG-B]2 | [DGA]4 [DF-A]2 | [DFG]4 [CEG]2 | %120
 [CEF]4 [D-F]2 | [DE]4 [CE]2 | [CD]4 [B,D]2 | C4 [CEG]2 | [CFA]4 z2 | [DF]4 z2 | [DG]4 z2 | %127
 [EGB]4 z2 | [EAc]4 z2 | [GB]2 [^Fc]4 | [^D^FB]4 z2 | [EGB]4 [EAc]2 | [Ac]4 [GB]2- | [GB]4 A2- | %134
 [DA]4 [EG]2- | [EG]4 [D^F]2- | [DF]4 [CE]2- | [CE]4 [B,^D]2 | [B,E]4 [B,E]2 | [CE]2 z2 [F-c]2 | %140
 [FB]4 _B2 | A6 | G6 | F6 | E6 | D6 | C6 | B,2 B,4 | C4 z2 | [B,EG]4 z2 | [DGd]4 z2 | [EGc]4 z2 | %152
 [EBe]4 z2 | [EAc]4 z2 | [CGc]4 z2 | [DGB]6 | z2 c4 | [GB]4 [DGd]2 | c[Gd] G2 ^F2 | B6 | c4 d2 | %161
 [Ec]6 | _B4 B2 | A6 | G6 | G6 | F6 | E4 G2 | _B4 B2 | A6- | A3 A^GA | ^G6 | A4 B2 | E4 c2 | %174
 B4 e2- | (e2 d2) z2 | (d2 c2) z2 | (c2 B2) z2 | (B2 A2) z2 | (A2 ^G2) z2 | A2 z2 f2- | f4 e2- | %182
 e4 d2- | d4 c2- | c4 B2- | B4 A2 | [CEA]2 [A,DA]2 [A,D]2 | !fermata!E6 || %188
[M:4/4]"^Largo." z2!mp! B2 B4 | _B2 A2 ^G2 =G2 | ^F2 =d2 ^c2 =c2 | B2 B2 ^A2 [^DB]2 | %192
 [E^A]2 [^F=A]2 ^G2 =G2 | F4 E4 | ^D2 E4 ^F2 | G2 ^G2 _A2 P=A2 | A2 B2 c2 Mdc | %197
 !breath!!fermata![DGB]8 ||"^Presto."!f! B4 [Ec]3 [GB] | AG A2 B2 dB | [Ec][DG][CF][_B,E] DC=B,C | %201
 B, C2 B, x2 G2 | [FA]4 [FA]2 B>A | [B,E^G]2 [CEA]2 [B,EG]2 [CEA]2 | %204
 [B,E^G]3 [EA] [FB][=Gc][Ad][Ac] | B^G A2- A2- [CA][B,^G] | A2 A2 A4 | BF G2 EFGE | A2 Bc B4 | %209
 [EGc]4 [EAc]4 | [D^FA]4 [DGB]3 [DFd] | ^c d2 ^c [Ad]2 d2 | B3 B c4 | A2 d2 B2 d2 | e4 cB Ac | %215
 [^DB]2 [EGB]2 [D^FB]2 [EGB]2 | [^D^FB]3 [GB] [Fc][DB][EA][GB] | %217
 [^Fc][^DB][EA][EG-B] [Gc][Ac] [GB]B | GAB [GBe] [EAc]4 | Ac d2 B2 d2 | e2 cB A4 | B4 edcB | %222
 AG- AA B4 | c3 _B A3 [EGc] | [DGB]2 [EGc]2 [DGB]2 [EGc]2 | [DGB]3 [Gc] [Ad][Gc][FB][Gc] | %226
 [Ad][Gc][FB][EGc] c2- cB | [Gc]3 [Gc] [CFA][EG] [CF][EG] | [FA]EFG Fc=B-B/A/ | %229
 [E^G]2 [EAc]2 [EGB]2 [EAc]2 | [E^GB]2 [EAc]2 [FB][EG] Ac | B^G A2 A2- AG | [CA][D=G] EA FG AB | %233
 [E^G] z z2 [CEA] z z2 | [B,E^G] z z2 [CEA] z z2 | z ^GAc z GAc | c2 z f ^ec fA | ^G2 AB cFEA | %238
 BcBA df ed | e2 A2 [FA]2 A>=G ||"^Lento." A2 z2 z4 | z2"_dim." [CF]2 [B,E]2 [_B,_E-]2 | %242
 E2 DA ^G2 =G2 | ^F2 =F_B B2 A2 | P^G2 A4 MG2 |!mp! !fermata![^CA]8 |] %246
V:5
 A,,8- | A,,8- | A,,8 | ^G,,4 A,,4 | z2 D,2 A,4 | F,4 E,4 | E,4 z2 C,D, | E,2 z2 A,,4- | %8
 A,,4 z2 B,,2 | C,3 D, E,4 | E,2 E,,2 A,,2 C,2 | B,,8 | B,,6 A,,2 | ^G,,4 A,,4 | z2 A,2 x4 | x8 | %16
 A,2 ^G,2 A,3 C | B,2 E2 ^C3 D | A,2 A,,2 z2 D,2 | B,,2 A,,2 E,4 | B,4 ^C4 || z8 | %22
 z A,/B,/ CB, A,A,, A,G,/F,/ | E,C, E,2 D,2- D,G, | C,2 G,,A,, E,A, B,B,, | E, z E,, z E, z E,, z | %26
 E,G,B,A, G,>^F, G,>A, | B, z z G, A, z z ^F, | G,A,G,F, E,D,C,B,, | A,,B,,C,A,, z E,,F,,G,, | %30
 C,,C,/B,,/ A,,D, C,C/B,/ C^F, | G, z E, z F, z D, z | E, z ^F, z G,A, G,F, | %33
 E, z C, z G,, z B,, z | E,, z z A,, E,E,,- E,,/^F,,/G,,/A,,/ | B,, z G,, z A,, z ^F,, z | %36
 G,, z z2 z4 | A,, z A, z A,, z A, z | A,,C, E,D, C,>B,, C,>D, | E, z z C, D, z z B,, | %40
 C,E, D,C, B,,A,, G,,^F,, | E,,2 z2 z E,E,C, | C,2 z2 z C,C,A,, | A,2 z2 z A,,A,,F,, | %44
 F,>G, A,F, D,E,/F,/ G,G,, | C, z A,, z E,, z G,, z | C,,C,/D,/ E,D, C,C,, C,B,,/A,,/ | %47
 G,, z G, z G,, z G, z | G,,G, ^F,D, G,G,, B,,G,, | E,,E, G,E, C,C, E,C, | A,,A, CA, F,F, A,F, | %51
 D, z F, z C, z E, z | A,, z z D, A,A,,3/2 B,,/C,/D,/ | E,2 z C, D,2 z B,, | C,2 G,,A,, E,A,B,B,, | %55
 E,, z E, z E,, z E, z | E,,G,, B,,A,, G,,G, B,G, | E,C,E,C, A,,A, CA, | F,F,A,F, D,>C, B,,>A,, | %59
 ^G,,2 A,,F,, E,,D,, E,,2 | A,, z A, z A,, z A, z | A,,C, E,D, C,E, F,D, | E,2- E,D, C,D, PE,2 | %63
 !fermata!A,,8 || F,,4 z F,ME,D, | E,C, F,2- F,2 E,2 | F,4- F,E,D,C, | _B,,4- B,,2 z A,, | %68
 _B,,G,,C,C,, F,,F, A,F, | C4 z CB,A, | B,G, C2- C2 B,2 | C4- C_B,A,G, | F,4 F,2 z E, | %73
 F,D,G,G,, z C,E,C, | F,4 z F,E,D, | E,C, F,2- F,2 ME,2 | F,2 MD,2 DC_B,A, | G,2 PA,2 _B,A,G,F, | %78
 E,2 ^F,2 G,2 ^C,2 | D,4- D,2 ^D,2 | E,8 ||[M:3/4] A,2 x4 | A,,2 D,4 | E,4 z2 | A,,4 A,2 | E6 | %86
 D6- | D4 C2- | C4 B,2- | B,4 A,2- | B,6 | A,4 A,,2 | E,4 E2 | D6 | C6 | B,6 | A,6 | [G,B,]6 | %98
 [^F,A,]6 | [E,G,]4 z2 | A,6 | G,6 | C4 z2 | ^F,6 | G,4 C2 | A,4 B,2 | C4 A,2 | ^F,4 G,2 | %108
 E,4 ^F,2 | G,4 E,2 | C,4 D,2 | G,,4 z2 | D,4 z2 | A,,4 z2 | E,4 z2 | A,,2 B,,4 | C,2 z2 ^F,,2 | %117
 G,,4 G,,2 | D,4 D,2 | B,,4 C,2 | A,,4 B,,2 | C,4 E,,2 | F,,4 G,,2 | C,,4 C,2 | F,4 z2 | D,4 z2 | %126
 G,4 z2 | E,4 z2 | A,4 z2 | E2 A,4 | B,4 z2 | E,4 A,2 | ^F,4 G,2 | E,4 ^F,2 | G,4 D,2 | ^C,4 D,2 | %136
 B,,4 C,2 | A,,4 B,,2 | E,4 E,,2 | A,,2 z2 A,2 | G,6 | F,6 | E,6 | D,6 | C,6 | B,,6 | A,,6 | %147
 D,,2 E,,4 | [E,A,]4 z2 | E,4 z2 | B,,4 z2 | C,4 z2 | G,,4 z2 | A,,4 z2 | E,,4 z2 | G,,6 | %156
 z2 C,B,, A,,2 | E,4 B,,2 | C,2 D,4 | G,,6 | A,,4 B,,2 | C,6 | D,4 E,2 | F,6 | C4 C,2 | B,,4 E,2 | %166
 A,,4 B,,2 | C,6 | D,4 E,2 | F,3 E, D,2- | D,3 C,B,,A,, | E,6 | ^F,4 ^G,2 | A,6 | E4 z2 | F4 z2 | %176
 E4 z2 | D4 z2 | C4 z2 | B,4 z2 | A,2 z2 D2 | B,4 ^C2 | D2 A,2 B,2 | C2 ^G,2 A,2 | B,2 ^F,2 ^G,2 | %185
 A,6 | A,,2 F,,4 | [^G,B,]6 ||[M:4/4] z2 E,2 ^D,2 =D,2 | _D,2 =C,2 B,,2 E,,2 | B,,2 B,2 ^A,2 =A,2 | %191
 ^G,2 =G,2 ^F,2 B,,2 | ^C,2 ^D,2 E,2 E,2 | B,2 B,2- B,2 A,2- | A,2 P^G,2 A,2 A,,2 | %195
 _B,,2 P=B,,2 C,2 ^C,2 | D,2 G,,2- G,,2 P^F,,2 | !fermata!G,,8 || G,F,E,D, C,B,,A,,G,, | %199
 D,E,C,D, G,,A,,B,,G,, | C,_B,,A,,G,, A,G,F,E, | D,C, D,2 E,4 | F,G,F,E, D,E,F,D, | %203
 E,D,C,A,, E,D,C,A,, | E,E,,E,C, D,E,F,C, | D,E,F,C, D,B,,E,E,, | A,,B,,C,A,, D,E,F,D, | %207
 G,A,,B,,G,, C,D,E,C, | F,E,D,C, G,F,E,D, | C,D,C,B,, A,,B,,C,A,, | D,C,B,,A,, G,,^F,,E,,D,, | %211
 A,,B,,G,,A,, D,E,^F,D, | G,=F,E,D, C,B,,A,,G,, | D,E,^F,D, G,A,B,G, | CDCB, A,B,CA, | %215
 B,A,G,E, B,A,G,E, | B,B,,B,G, A,B,CG, | A,B,CG, A,^F, B,B,, | E,^F,G,E, A,B,CA, | %219
 DE, ^F,D, G,A,B,G, | CB,A,G, DCB,A, | G,=F, E,D, C,B,, A,,=G,, | D,E,C,D, G,,A,,B,,G,, | %223
 C,_B,,A,,G,, F,,E,,D,,C,, | G,,G,E,C, G,F,E,C, | G,G,,G,E, F,E,D,E, | F,E,D,E, F,D,G,G,, | %227
 C,D,E,C, F,[G,_B,]A,G, | [F,A,][G,_B,]F,E, D,E,F,D, | E,D,C,A,, E,D,C,A,, | E,D,C,A,, D,E,F,C, | %231
 D,E,F,C, D,B,,E,E,, | A,,B,,C,A,, D,E,F,D, | E, z z2 E, z z2 | E, z z2 E, z z2 | %235
 z E,C,A,, z E,C,A,, | E,2 z A, ^G,E, A,C, | E,D, C,^G,, A,,B,, C,A,, | D,E,D,C, B,,A,, G,,F,, | %239
 E,,2 F,,2 D,,2 E,,2 || A,,2 z2 z4 | z2 A,2 ^G,2 M=G,2 | ^F,2 M=F,2 E,2 M_E,2 | D,4 ^C,2 =C,2 | %244
 B,,2 A,,2 [E,,E,]4 | !fermata![A,,E,]8 |] %246
V:6
 x8 | x8 | x8 | B,4 C4 | x8 | x8 | x6 EF | [B,E-]4 x4 | A,4 x2 D2 | D2 C[I:staff +1]A, x4 | %10
[I:staff -1] [B,E]4 E4 | B,4 x4 | B,6 x2 | x8 | x2 D2 A2 [E-G]2 | [EA]2 [D-F]2 E2 x2 | %16
 [DF]2 [B,E]2 C3 x | x8 | D2 ^C2 x4 | x4 E4- | x8 || x8 | x8 | GE G2 F4 | x2 BA G^F E^D | x8 | %26
 B,2 D^F E4 | x8 | GcBA GFED | x5 GAG | x7 A | x8 | x8 | x8 | x8 | x6 A x | x8 | x8 | E2- x6 | x8 | %40
 EG ^FE DC x2 | x8 | x8 | x8 | x8 | x6 G2 | EE/D/ CD x2 C2 | x8 | x6 D2 | x8 | x8 | x6 E2 | x8 | %53
 x8 | x2 BA G^FE^D | x8 | x2 DC x2 D2 | G4 E4 | F4 A2 B2 | [EB]2 A2 EF E2 | x8 | x4 EG AF | %62
 E3 F E[DF] [B,E]2 | x8 || x8 | GE FD z4 | G4 F4 | x2 GF x4 | F2 x6 | E4 x4 | G2 E2 D2 F2 | %71
 E6 [EA]2 | [FA]4 x4 | x5 EEE | [CF]4 x AGF | GE A_B G4- | G2 FE F4 | E2 F2- F4 | %78
 C2 C2 [=B,D]2 [_B,E]2 | A,4 x4 | x8 ||[M:3/4] x6 | x2 [DF]4 | x6 | [CE]4 x2 | x6 | F6 | x6 | x6 | %89
 x6 | x6 | x6 | x6 | x6 | x6 | x6 | x6 | x6 | x6 | x6 | E6 | G6 | G4 x2 | A6 | G4 x2 | x6 | x6 | %107
 x6 | x6 | x6 | A,6 | x6 | x6 | x6 | x6 | x6 | x6 | x6 | x6 | x6 | x6 | x6 | x6 | x6 | x6 | x6 | %126
 x6 | x6 | x6 | x6 | x6 | x6 | D6 | C6 | B,6 | A,6 | x6 | x6 | x6 | x6 | x4 E2- | E4 D2- | D4 C2- | %143
 C4 B,2- | B,4 x2 | x6 | x6 | x6 | x6 | x6 | x6 | x6 | x6 | x6 | x6 | x6 | x2 [EA]2 ^F2 | x6 | %158
 [EA]2 [DA]4 | G6 | F6 | x6 | F4 G2 | C6 | E6 | D4 B,2 | C4 D2 | G,4 E2 | F4 G2 | F6- | F3 EDC | %171
 B,6 | D6 | C4 E2 | G4 G2 | A4 x2 | G4 x2 | F4 x2 | E4 x2 | D4 x2 | C2 x2 A2 | G6 | F6 | E6 | D6 | %185
 C6 | x6 | x6 ||[M:4/4] x2 G2 ^F2 =F2- | F2 E2 D2 E2 | ^D2 ^F2- F4- | F2 E2- E2 x2 | x4 E4 | %193
 ^D2 =D2 ^C2 =C2 | x4 C2 ^C2 | D4 P_E2 =E2 | ^F2 [DG]2 [EA]2 [DA]2 | x8 || G4 x4 | ^FG-GF G4 | x8 | %201
 x4 C4- | C4 D4 | x8 | x8 | FE DE FE/D/ E2 | [CE]2 EC FE DC | B,CDB, C4- | C2 FE D4 | x8 | x8 | %211
 [EA][D^F] BA ^F2 A2 | G3 F E4 | ^F2 A2 G4 | G4 AG ^F-F/E/ | x8 | x8 | x4 E2- E[^D^F] | [B,E]3 x5 | %219
 ^FG AF G4- | G2 ^FG F4 | G4 G^GAD | ^FE[EG][D^F] [DG]4 | [EG]2 FE F3 x | x8 | x8 | x4 [CA][FA]ED | %227
 EFGE x4 | x2 C2 DGDF | x8 | x6 DA | FE DE FD [CE]B, | x2 C2 D C2 D | x8 | x8 | x E3 x E3 | x8 | %237
 E2 E2 ED E[CE] | FGFE Gc BA | ^GE DC B,4 || x8 | x8 | A,4 B,2 C2- | C2 x2 G2 F2 | D2 C2 B,4 | %245
 x8 |] %246
V:7
 x8 | x8 | x8 | x8 | x8 | A,4 ^G,A,G, x | A,2 ^G,2 z2 x2 | x4 A,4 | E,4 x4 | %9
 x4 [^G,B,][A,C][G,B,] x | x8 | x8 | x6 [^D,F,B,]2 | [E,B,]4 [E,C]4 | x8 | x8 | x8 | x8 | x8 | %19
 x6 B,A, | E,4 !fermata!A,,4 || x8 | x8 | x8 | x8 | x8 | x8 | x8 | x8 | x8 | x8 | x8 | x8 | x8 | %34
 x8 | x8 | x8 | x8 | x8 | x8 | x8 | x8 | x8 | x8 | x8 | x8 | x8 | x8 | x8 | x8 | x8 | x8 | x8 | %53
 x8 | x8 | x8 | x8 | x8 | x8 | x8 | x8 | x8 | x8 | x8 || x8 | x8 | x8 | x8 | x8 | x8 | x8 | x8 | %72
 x8 | x8 | x8 | x8 | x8 | x8 | x8 | x4 ^G,2 A,2 | A,4 ^G,4 ||[M:3/4] z2 A,,B,, C,2 | x6 | x6 | x6 | %85
 x6 | x6 | x6 | x6 | x6 | A,4 ^G,2 | x6 | x6 | x6 | x6 | x6 | x6 | x6 | x6 | x6 | x6 | x6 | x6 | %103
 x6 | x6 | x6 | x6 | x6 | x6 | x6 | x6 | x6 | x6 | x6 | x6 | x6 | x6 | x6 | x6 | x6 | x4 B,A, | %121
 G,4 G,2 | A,4 G,2 | [E,G,]4 x2 | x6 | x6 | x6 | x6 | x6 | x6 | x6 | x6 | x6 | x6 | x6 | x6 | G,6 | %137
 ^F,4 F,2 | ^G,4 G,2 | A,2 x4 | x6 | x6 | x6 | x6 | x4 A,2- | A,4 ^G,2 | A,6- | [F,A,]2 [E,^G,]4 | %148
 A,,4 x2 | x6 | x6 | x6 | x6 | x6 | x6 | x6 | x6 | x6 | x6 | x6 | x6 | x6 | x6 | x6 | x6 | x6 | %166
 x6 | x6 | x6 | x6 | x6 | x6 | x6 | x6 | x6 | x6 | x6 | x6 | x6 | x6 | x6 | x6 | x6 | x6 | x6 | %185
 x6 | x6 | !fermata!E,,6 ||[M:4/4] x8 | x8 | x8 | x8 | x8 | x8 | B,4 x4 | x8 | x8 | x8 || x8 | x8 | %200
 x4 F,,E,,D,,C,, | G,,A,, F,,G,, C,,C,E,C, | x8 | x8 | x8 | x8 | x8 | x8 | x8 | x8 | x8 | x8 | x8 | %213
 x8 | x8 | x8 | x8 | x8 | x8 | x8 | x8 | x8 | x8 | x8 | x8 | x8 | x8 | x8 | x8 | x8 | x8 | x8 | %232
 x8 | x8 | x8 | x8 | x8 | x8 | x8 | x8 || x8 | x8 | x8 | x8 | x8 | x8 |] %246
V:8
 x8 | x8 | x8 | x8 | x8 | x8 | x8 | x8 | x8 | x8 | x4 C2 A,2 | x8 | x8 | x8 | x4 C2 x2 | %15
 x4 DCB,[I:staff +1]A,- | x8 | x8 | x8 | x4[I:staff -1] C2 x2 | x8 || x8 | x8 | x8 | x8 | x8 | x8 | %27
 x8 | x8 | x8 | x8 | x8 | x8 | x8 | x8 | x8 | x8 | x8 | x8 | x8 | x8 | x8 | x8 | x8 | x8 | x6 ED | %46
 x8 | x8 | x8 | x8 | x8 | x6 A^G | x8 | x8 | x8 | x8 | x8 | x8 | x4 F4 | x2 ED x4 | x8 | x8 | x8 | %63
 x8 || x8 | x8 | C6 D2 | D4 x4 | D2 x6 | x8 | x8 | x8 | x8 | x8 | x8 | x8 | x8 | x2 _E2 D4 | x8 | %79
 D4 x4 | x8 ||[M:3/4] x6 | x6 | x6 | x6 | x6 | x6 | x6 | x6 | x6 | x6 | x6 | x6 | x6 | x6 | x6 | %96
 x6 | x6 | x6 | x6 | x6 | x6 | x6 | x6 | x6 | x6 | x6 | x6 | x6 | x6 | x6 | x6 | x6 | x6 | x6 | %115
 x6 | x6 | x6 | x6 | x6 | x6 | x6 | x6 | x6 | x6 | x6 | x6 | x6 | x6 | x6 | x6 | x6 | x6 | x6 | %134
 x6 | x6 | x6 | x6 | x6 | x6 | x6 | x6 | x6 | x6 | x6 | x6 | x6 | x6 | x6 | x6 | x6 | x6 | x6 | %153
 x6 | x6 | x6 | x6 | x6 | x6 | x6 | x6 | x6 | x6 | x6 | x6 | x6 | x6 | x6 | x6 | x6 | x6 | x6 | %172
 x6 | x6 | x6 | x6 | x6 | x6 | x6 | x6 | x6 | x6 | x6 | x6 | x6 | x6 | x6 | x6 ||[M:4/4] x8 | x8 | %190
 x8 | x8 | x8 | x6 ^F2 | x8 | x8 | x8 | x8 || x8 | x8 | x8 | x4 C4 | x8 | x8 | x8 | x8 | x8 | x8 | %208
 x8 | x8 | x8 | x2 E2 x4 | x8 | x8 | x8 | x8 | x8 | x8 | x8 | x8 | x8 | x8 | x8 | x8 | x8 | x8 | %226
 x6 G2 | x8 | x8 | x8 | x8 | x8 | x8 | x8 | x8 | x8 | x8 | x8 | x8 | x6 E2 || x8 | x8 | x8 | x8 | %244
 x8 | x8 |] %246

